; generated by Slic3r 1.2.9 on 2016-01-12 at 03:08:05

; external perimeters extrusion width = 0.50mm
; perimeters extrusion width = 0.72mm
; infill extrusion width = 0.72mm
; solid infill extrusion width = 0.72mm
; top infill extrusion width = 0.72mm

M107
M104 S200 ; set temperature
G28 ; home all axes
G1 Z5 F5000 ; lift nozzle

M109 S200 ; wait for temperature to be reached
G21 ; set units to millimeters
G90 ; use absolute coordinates
M82 ; use absolute distances for extrusion
G92 E0
G1 Z0.500 F7800.000
G1 E-2.00000 F2400.00000
G92 E0
G1 X85.125 Y70.254 F7800.000
G1 E2.00000 F2400.00000
G1 X86.887 Y68.715 E2.08310 F1800.000
G1 X89.062 Y67.854 E2.16621
G1 X90.475 Y67.707 E2.21665
G1 X109.525 Y67.707 E2.89330
G1 X111.831 Y68.104 E2.97640
G1 X113.871 Y69.250 E3.05951 F1800.000
G1 X115.410 Y71.012 E3.14261
G1 X116.271 Y73.187 E3.22572
G1 X116.418 Y74.600 E3.27616
G1 X116.418 Y125.400 E5.08054
G1 X116.021 Y127.706 E5.16365
G1 X114.875 Y129.746 E5.24675
G1 X113.113 Y131.285 E5.32986
G1 X110.938 Y132.146 E5.41296
G1 X109.525 Y132.293 E5.46341
G1 X90.475 Y132.293 E6.14005
G1 X88.169 Y131.896 E6.22315
G1 X86.129 Y130.750 E6.30626
G1 X84.590 Y128.988 E6.38936
G1 X83.729 Y126.813 E6.47247
G1 X83.582 Y125.400 E6.52291
G1 X83.582 Y74.600 E8.32730
G1 X83.979 Y72.294 E8.41040
G1 X85.088 Y70.320 E8.49084
G1 E6.49084 F2400.00000
G92 E0
G1 X96.058 Y122.287 F7800.000
G1 E2.00000 F2400.00000
G1 X95.915 Y122.632 E2.01326 F1800.000
G1 X95.683 Y122.934 E2.02676
G1 X95.382 Y123.165 E2.04027
G1 X95.030 Y123.311 E2.05378
G1 X94.653 Y123.360 E2.06729
G1 X94.276 Y123.311 E2.08080
G1 X93.925 Y123.165 E2.09430
G1 X93.623 Y122.934 E2.10781
G1 X93.392 Y122.632 E2.12132
G1 X93.246 Y122.281 E2.13483
G1 X93.196 Y121.904 E2.14834
G1 X93.246 Y121.526 E2.16184
G1 X93.376 Y121.212 E2.17392
G1 X93.617 Y120.878 E2.18856
G1 X93.925 Y120.642 E2.20234
G1 X94.276 Y120.496 E2.21584
G1 X94.613 Y120.452 E2.22792 F1800.000
G1 X95.023 Y120.493 E2.24255
G1 X95.382 Y120.642 E2.25634
G1 X95.683 Y120.873 E2.26984
G1 X95.915 Y121.175 E2.28335
G1 X96.060 Y121.526 E2.29686
G1 X96.114 Y121.935 E2.31148
G1 X96.070 Y122.213 E2.32150
G1 X96.307 Y122.565 F7800.000
G1 X93.322 Y124.007 F7800.000
G1 X91.868 Y124.007 E2.37315 F1800.000
G1 X91.868 Y122.412 E2.42981
G1 X92.299 Y122.326 E2.44542
G1 X92.612 Y123.082 E2.47448
G1 X93.276 Y123.948 E2.51324
G1 X92.086 Y121.824 F7800.000
G1 X92.906 Y120.760 F7800.000
G1 X93.252 Y120.498 F7800.000
G1 X93.365 Y120.433 F7800.000
G1 X93.670 Y120.199 F7800.000
G1 X94.632 Y119.784 F7800.000
G1 X96.178 Y118.415 F7800.000
G1 X96.618 Y118.512 F7800.000
G1 X96.879 Y118.582 F7800.000
G1 X97.437 Y118.697 F7800.000
G1 X97.904 Y117.839 F7800.000
G1 X97.904 Y105.335 E2.95737 F1800.000
G1 X98.015 Y105.187 E2.96394
G1 X98.380 Y104.518 E2.99100
G1 X98.646 Y103.805 E3.01806
G1 X98.808 Y103.060 E3.04511
G1 X98.856 Y102.382 E3.06927
G1 X98.856 Y82.686 E3.76885
G1 X98.808 Y82.008 E3.79300
G1 X98.646 Y81.263 E3.82006
G1 X98.380 Y80.550 E3.84712
G1 X98.015 Y79.881 E3.87418
G1 X97.558 Y79.271 E3.90123
G1 X97.019 Y78.733 E3.92829
G1 X96.410 Y78.276 E3.95535
G1 X95.741 Y77.911 E3.98241
G1 X95.027 Y77.645 E4.00947
G1 X94.283 Y77.483 E4.03653
G1 X93.605 Y77.434 E4.06068
G1 X92.760 Y77.434 E4.09066
G1 X92.760 Y76.885 E4.11016
G1 X107.240 Y76.885 E4.62446
G1 X107.240 Y123.115 E6.26649
G1 X97.733 Y123.115 E6.60415
G1 X97.918 Y121.960 E6.64569
G1 X97.800 Y121.060 E6.67791
G1 X97.474 Y120.275 E6.70811
G1 X96.957 Y119.600 E6.73832
G1 X96.282 Y119.082 E6.76853
G1 X95.650 Y118.820 E6.79284
G1 X95.520 Y117.839 E6.82800
G1 X97.829 Y117.839 E6.91000
G1 X97.011 Y116.946 F7800.000
G1 X97.011 Y106.160 E7.29312 F1800.000
G1 X96.376 Y106.160 E7.31569
G1 X96.254 Y105.793 E7.32940
G1 X96.433 Y105.659 E7.33737
G1 X96.882 Y105.211 E7.35989
G1 X97.262 Y104.703 E7.38241
G1 X97.566 Y104.147 E7.40494
G1 X97.787 Y103.552 E7.42746
G1 X97.922 Y102.933 E7.44998
G1 X97.964 Y102.350 E7.47073
G1 X97.964 Y82.718 E8.16805
G1 X97.922 Y82.135 E8.18880
G1 X97.787 Y81.516 E8.21133
G1 X97.566 Y80.922 E8.23385
G1 X97.262 Y80.365 E8.25637
G1 X96.882 Y79.857 E8.27889
G1 X96.433 Y79.409 E8.30142
G1 X95.926 Y79.029 E8.32394
G1 X95.369 Y78.725 E8.34646
G1 X94.775 Y78.503 E8.36898
G1 X94.155 Y78.369 E8.39151
G1 X93.573 Y78.327 E8.41226
G1 X91.868 Y78.327 E8.47282
G1 X91.868 Y75.993 E8.55573
G1 X108.132 Y75.993 E9.13344
G1 X108.132 Y124.007 E10.83889
G1 X95.985 Y124.007 E11.27037
G1 X96.695 Y123.082 E11.31179
G1 X96.923 Y122.532 E11.33295
G1 X97.016 Y121.947 E11.35398
G1 X96.930 Y121.293 E11.37740
G1 X96.695 Y120.725 E11.39926
G1 X96.320 Y120.237 E11.42111
G1 X95.832 Y119.862 E11.44297
G1 X95.244 Y119.618 E11.46559
G1 X94.618 Y119.555 E11.48794
G1 X94.743 Y118.772 E11.51610
G1 X94.657 Y118.118 E11.53952
G1 X94.421 Y117.550 E11.56138
G1 X93.958 Y116.946 E11.58841
G1 X96.936 Y116.946 E11.69419
G1 X96.118 Y116.054 F7800.000
G1 X96.118 Y107.053 E12.01389 F1800.000
G1 X90.975 Y107.053 E12.19659
G1 X90.975 Y105.848 E12.23936
G1 X93.541 Y105.848 E12.33050
G1 X94.028 Y105.813 E12.34785
G1 X94.523 Y105.706 E12.36584
G1 X94.997 Y105.529 E12.38382
G1 X95.442 Y105.286 E12.40181
G1 X95.847 Y104.983 E12.41980
G1 X96.205 Y104.625 E12.43779
G1 X96.509 Y104.219 E12.45577
G1 X96.751 Y103.775 E12.47376
G1 X96.928 Y103.300 E12.49175
G1 X97.036 Y102.805 E12.50973
G1 X97.071 Y102.318 E12.52709
G1 X97.071 Y82.750 E13.22214
G1 X97.036 Y82.263 E13.23949
G1 X96.928 Y81.768 E13.25748
G1 X96.751 Y81.293 E13.27546
G1 X96.509 Y80.849 E13.29345
G1 X96.205 Y80.443 E13.31144
G1 X95.847 Y80.085 E13.32943
G1 X95.442 Y79.782 E13.34741
G1 X94.997 Y79.539 E13.36540
G1 X94.523 Y79.362 E13.38339
G1 X94.028 Y79.255 E13.40137
G1 X93.541 Y79.220 E13.41873
G1 X90.975 Y79.220 E13.50986
G1 X90.975 Y75.100 E13.65619
G1 X109.025 Y75.100 E14.29732
G1 X109.025 Y124.900 E16.06619
G1 X90.975 Y124.900 E16.70731
G1 X90.975 Y119.471 E16.90015
G1 X91.652 Y119.990 E16.93044
G1 X92.003 Y120.136 E16.94395
G1 X92.380 Y120.185 E16.95746
G1 X92.757 Y120.136 E16.97096
G1 X93.108 Y119.990 E16.98447
G1 X93.410 Y119.759 E16.99798
G1 X93.642 Y119.457 E17.01149
G1 X93.784 Y119.112 E17.02475
G1 X93.841 Y118.760 E17.03743
G1 X93.787 Y118.351 E17.05205
G1 X93.642 Y118.000 E17.06556
G1 X93.410 Y117.698 E17.07906
G1 X93.108 Y117.467 E17.09257
G1 X92.750 Y117.318 E17.10635
G1 X92.340 Y117.277 E17.12099
G1 X92.003 Y117.321 E17.13306
G1 X91.652 Y117.467 E17.14657
G1 X90.975 Y117.986 E17.17686
G1 X90.975 Y116.054 E17.24551
G1 X96.043 Y116.054 E17.42553
G1 X96.618 Y116.054 F7800.000
G1 X90.951 Y115.553 F7800.000
G1 X90.951 Y107.553 E17.70972 F1800.000
G1 X91.421 Y106.450 F7800.000
G1 X93.557 Y106.450 E17.78557 F1800.000
G1 X94.129 Y106.429 E17.80593
G1 X94.734 Y106.363 E17.82753
G1 X95.304 Y106.260 E17.84811
G1 X95.890 Y106.113 E17.86956
G1 X97.623 Y105.731 F7800.000
G1 X96.879 Y118.582 F7800.000
G1 X94.680 Y119.740 F7800.000
G1 X94.477 Y119.859 F7800.000
G1 X94.129 Y119.881 F7800.000
G1 X94.110 Y119.883 F7800.000
G1 X94.114 Y119.880 F7800.000
G1 X93.793 Y120.126 E17.88393 F1800.000
G1 X93.248 Y120.500 E17.90741
G1 X92.984 Y120.994 E17.92727
G1 X93.446 Y123.393 F7800.000
G1 X93.673 Y123.619 E17.93864 F1800.000
G1 X94.131 Y123.965 E17.95902
G1 X94.393 Y124.116 E17.96978
G1 X94.611 Y124.131 E17.97754
G1 X94.913 Y124.116 E17.98829
G1 X95.176 Y123.965 E17.99905
G1 X95.633 Y123.619 E18.01942
G1 X95.860 Y123.393 E18.03079
G1 X98.833 Y122.565 F7800.000
G1 X98.416 Y122.149 E18.05203 F1800.000
G1 X98.346 Y120.796 E18.10089
G1 X100.115 Y122.565 E18.19114
G1 X101.397 Y122.565 E18.23740
G1 X97.220 Y118.388 E18.45049
G1 X98.453 Y118.339 E18.49501
G1 X102.679 Y122.565 E18.71060
G1 X103.961 Y122.565 E18.75685
G1 X98.453 Y117.057 E19.03785
G1 X98.453 Y115.775 E19.08411
G1 X105.244 Y122.565 E19.43052
G1 X106.526 Y122.565 E19.47677
G1 X98.453 Y114.493 E19.88860
G1 X98.453 Y113.211 E19.93485
G1 X106.690 Y121.448 E20.35507
G1 X106.690 Y120.165 E20.40132
G1 X98.453 Y111.928 E20.82154
G1 X98.453 Y110.646 E20.86780
G1 X106.690 Y118.883 E21.28801
G1 X106.690 Y117.601 E21.33427
G1 X98.453 Y109.364 E21.75449
G1 X98.453 Y108.082 E21.80074
G1 X106.690 Y116.319 E22.22096
G1 X106.690 Y115.037 E22.26721
G1 X98.453 Y106.800 E22.68743
G1 X98.453 Y105.518 E22.73368
G1 X106.690 Y113.754 E23.15390
G1 X106.690 Y112.472 E23.20015
G1 X98.861 Y104.643 E23.59959
G1 X99.195 Y103.695 E23.63584
G1 X106.690 Y111.190 E24.01821
G1 X106.690 Y109.908 E24.06446
G1 X99.379 Y102.596 E24.43746
G1 X99.406 Y101.341 E24.48275
G1 X106.690 Y108.626 E24.85438
G1 X106.690 Y107.344 E24.90063
G1 X99.406 Y100.059 E25.27226
G1 X99.406 Y98.777 E25.31851
G1 X106.690 Y106.061 E25.69013
G1 X106.690 Y104.779 E25.73639
G1 X99.406 Y97.495 E26.10801
G1 X99.406 Y96.213 E26.15427
G1 X106.690 Y103.497 E26.52589
G1 X106.690 Y102.215 E26.57214
G1 X99.406 Y94.930 E26.94377
G1 X99.406 Y93.648 E26.99002
G1 X106.690 Y100.933 E27.36165
G1 X106.690 Y99.651 E27.40790
G1 X99.406 Y92.366 E27.77953
G1 X99.406 Y91.084 E27.82578
G1 X106.690 Y98.368 E28.19741
G1 X106.690 Y97.086 E28.24366
G1 X99.406 Y89.802 E28.61528
G1 X99.406 Y88.520 E28.66154
G1 X106.690 Y95.804 E29.03316
G1 X106.690 Y94.522 E29.07942
G1 X99.406 Y87.237 E29.45104
G1 X99.406 Y85.955 E29.49729
G1 X106.690 Y93.240 E29.86892
G1 X106.690 Y91.957 E29.91517
G1 X99.406 Y84.673 E30.28680
G1 X99.406 Y83.391 E30.33305
G1 X106.690 Y90.675 E30.70468
G1 X106.690 Y89.393 E30.75093
G1 X99.378 Y82.081 E31.12398
G1 X99.002 Y80.423 E31.18530
G1 X106.690 Y88.111 E31.57752
G1 X106.690 Y86.829 E31.62377
G1 X97.296 Y77.435 E32.10302
G1 X98.578 Y77.435 E32.14927
G1 X106.690 Y85.547 E32.56310
G1 X106.690 Y84.264 E32.60936
G1 X99.861 Y77.435 E32.95778
G1 X101.143 Y77.435 E33.00403
G1 X106.690 Y82.982 E33.28704
G1 X106.690 Y81.700 E33.33329
G1 X102.425 Y77.435 E33.55089
G1 X103.707 Y77.435 E33.59715
G1 X106.690 Y80.418 E33.74933
G1 X106.690 Y79.136 E33.79558
G1 X104.989 Y77.435 E33.88236
G1 X106.271 Y77.435 E33.92861
G1 X106.690 Y77.854 E33.94997
G1 Z0.800 F7800.000
G1 E31.94997 F2400.00000
G92 E0
G1 X93.421 Y118.123 F7800.000
G1 E2.00000 F2400.00000
G1 X93.544 Y118.417 E2.00331 F900.000
G1 X93.585 Y118.729 E2.00658
G1 X93.544 Y119.040 E2.00985
G1 X93.423 Y119.331 E2.01312
G1 X93.232 Y119.580 E2.01639
G1 X92.982 Y119.772 E2.01966
G1 X92.692 Y119.892 E2.02293
G1 X92.380 Y119.933 E2.02620
G1 X92.068 Y119.892 E2.02947
G1 X91.778 Y119.772 E2.03274
G1 X91.528 Y119.580 E2.03601
G1 X91.337 Y119.331 E2.03928
G1 X91.216 Y119.040 E2.04255
G1 X91.175 Y118.729 E2.04582
G1 X91.216 Y118.417 E2.04909
G1 X91.337 Y118.126 E2.05236
G1 X91.528 Y117.877 E2.05563
G1 X91.778 Y117.685 E2.05890
G1 X92.068 Y117.565 E2.06217
G1 X92.263 Y117.539 E2.06422
G1 X92.380 Y117.524 E2.06544 F900.000
G1 X92.692 Y117.565 E2.06872
G1 X92.982 Y117.685 E2.07199
G1 X93.232 Y117.877 E2.07526
G1 X93.375 Y118.064 E2.07771
G1 X93.739 Y118.137 F7800.000
G1 X91.177 Y115.804 F7800.000
G1 X91.177 Y107.303 E2.16612 F900.000
G1 X95.868 Y107.303 E2.21490
G1 X95.868 Y115.804 E2.30331
G1 X91.252 Y115.804 E2.35131
G1 X90.677 Y115.804 F7800.000
G1 X91.475 Y116.999 F7800.000
G1 X91.854 Y116.694 F7800.000
G1 X92.906 Y116.694 F7800.000
G1 X94.876 Y117.417 F7800.000
G1 X94.599 Y119.532 F7800.000
G1 X94.128 Y119.872 F7800.000
G1 X93.781 Y120.134 F7800.000
G1 X93.670 Y120.199 F7800.000
G1 X93.673 Y120.205 F7800.000
G1 X93.776 Y120.384 F7800.000
G1 X94.199 Y120.209 E2.35847 F900.000
G1 X94.465 Y120.174 E2.36266
G1 X94.653 Y120.149 E2.36562 F900.000
G1 X95.107 Y120.209 E2.37278
G1 X95.530 Y120.384 E2.37994
G1 X95.894 Y120.663 E2.38709
G1 X96.173 Y121.026 E2.39425
G1 X96.348 Y121.449 E2.40140
G1 X96.408 Y121.904 E2.40856
G1 X96.348 Y122.358 E2.41572
G1 X96.173 Y122.781 E2.42287
G1 X95.894 Y123.144 E2.43003
G1 X95.530 Y123.423 E2.43718
G1 X95.107 Y123.598 E2.44434
G1 X94.653 Y123.658 E2.45150
G1 X94.199 Y123.598 E2.45865
G1 X93.776 Y123.423 E2.46581
G1 X93.413 Y123.144 E2.47296
G1 X93.134 Y122.781 E2.48012
G1 X92.959 Y122.358 E2.48728
G1 X92.899 Y121.904 E2.49443
G1 X92.959 Y121.449 E2.50159
G1 X93.134 Y121.026 E2.50875
G1 X93.413 Y120.663 E2.51590
G1 X93.717 Y120.430 E2.52189
G1 X94.051 Y120.860 F7800.000
G1 X94.341 Y120.740 E2.52516 F900.000
G1 X94.537 Y120.714 E2.52720
G1 X94.653 Y120.699 E2.52843 F900.000
G1 X94.965 Y120.740 E2.53170
G1 X95.256 Y120.860 E2.53497
G1 X95.505 Y121.052 E2.53824
G1 X95.697 Y121.301 E2.54151
G1 X95.817 Y121.592 E2.54478
G1 X95.858 Y121.904 E2.54805
G1 X95.817 Y122.215 E2.55132
G1 X95.697 Y122.506 E2.55459
G1 X95.505 Y122.755 E2.55786
G1 X95.256 Y122.947 E2.56113
G1 X94.965 Y123.067 E2.56440
G1 X94.653 Y123.108 E2.56767
G1 X94.341 Y123.067 E2.57094
G1 X94.051 Y122.947 E2.57421
G1 X93.801 Y122.755 E2.57748
G1 X93.610 Y122.506 E2.58075
G1 X93.490 Y122.215 E2.58402
G1 X93.449 Y121.904 E2.58729
G1 X93.490 Y121.592 E2.59056
G1 X93.610 Y121.301 E2.59383
G1 X93.801 Y121.052 E2.59711
G1 X93.991 Y120.906 E2.59960
G1 X94.065 Y120.546 F7800.000
G1 X91.925 Y122.329 F7800.000
G1 X92.292 Y122.305 E2.60534 F900.000
G1 X92.321 Y122.528 E2.60887
G1 X92.562 Y123.111 E2.61872
G1 X92.946 Y123.611 E2.62857
G1 X93.041 Y123.684 E2.63044
G1 X92.951 Y123.950 E2.63484
G1 X91.925 Y123.950 E2.65087
G1 X91.925 Y122.404 E2.67504
G1 X97.068 Y117.003 F7800.000
G1 X97.068 Y106.103 E2.84535 F3600.000
G1 X96.386 Y106.103 E2.85601
G1 X96.297 Y105.834 E2.86043
G1 X96.472 Y105.703 E2.86385
G1 X96.923 Y105.253 E2.87381
G1 X97.316 Y104.727 E2.88406
G1 X97.620 Y104.168 E2.89401
G1 X97.842 Y103.573 E2.90394
G1 X97.978 Y102.951 E2.91388
G1 X98.022 Y102.353 E2.92325
G1 X98.022 Y82.711 E3.23015
G1 X97.980 Y82.128 E3.23929
G1 X97.845 Y81.505 E3.24924
G1 X97.616 Y80.891 E3.25949
G1 X97.310 Y80.332 E3.26945
G1 X96.928 Y79.821 E3.27941
G1 X96.464 Y79.358 E3.28966
G1 X95.954 Y78.977 E3.29960
G1 X95.394 Y78.672 E3.30957
G1 X94.779 Y78.444 E3.31982
G1 X94.157 Y78.310 E3.32976
G1 X93.574 Y78.268 E3.33889
G1 X91.925 Y78.268 E3.36466
G1 X91.925 Y76.050 E3.39934
G1 X108.075 Y76.050 E3.65169
G1 X108.075 Y123.950 E4.40015
G1 X96.356 Y123.950 E4.58327
G1 X96.265 Y123.684 E4.58766
G1 X96.361 Y123.611 E4.58954
G1 X96.744 Y123.111 E4.59939
G1 X96.986 Y122.528 E4.60924
G1 X97.068 Y121.904 E4.61909
G1 X96.986 Y121.279 E4.62893
G1 X96.744 Y120.696 E4.63878
G1 X96.361 Y120.196 E4.64863
G1 X95.861 Y119.812 E4.65848
G1 X95.278 Y119.571 E4.66833
G1 X94.694 Y119.494 E4.67754
G1 X94.795 Y118.729 E4.68961
G1 X94.712 Y118.104 E4.69946
G1 X94.471 Y117.521 E4.70931
G1 X94.073 Y117.003 E4.71951
G1 X96.993 Y117.003 E4.76513
G1 X96.414 Y116.349 F7800.000
G1 X96.414 Y106.757 E4.91499 F3600.000
G1 X91.270 Y106.757 E4.99536
G1 X91.270 Y106.145 E5.00493
G1 X93.561 Y106.145 E5.04072
G1 X94.076 Y106.107 E5.04880
G1 X94.623 Y105.985 E5.05756
G1 X95.115 Y105.802 E5.06575
G1 X95.607 Y105.533 E5.07452
G1 X96.042 Y105.207 E5.08302
G1 X96.427 Y104.823 E5.09151
G1 X96.763 Y104.373 E5.10029
G1 X97.023 Y103.896 E5.10878
G1 X97.213 Y103.387 E5.11726
G1 X97.329 Y102.857 E5.12574
G1 X97.368 Y102.329 E5.13401
G1 X97.368 Y82.735 E5.44017
G1 X97.331 Y82.221 E5.44822
G1 X97.216 Y81.690 E5.45671
G1 X97.019 Y81.164 E5.46549
G1 X96.758 Y80.687 E5.47398
G1 X96.433 Y80.251 E5.48248
G1 X96.035 Y79.855 E5.49126
G1 X95.599 Y79.530 E5.49975
G1 X95.122 Y79.269 E5.50825
G1 X94.595 Y79.074 E5.51702
G1 X94.064 Y78.959 E5.52551
G1 X93.551 Y78.923 E5.53355
G1 X91.270 Y78.923 E5.56919
G1 X91.270 Y75.395 E5.62431
G1 X108.730 Y75.395 E5.89713
G1 X108.730 Y124.605 E6.66603
G1 X91.270 Y124.605 E6.93884
G1 X91.270 Y120.151 E7.00843
G1 X91.926 Y120.423 E7.01952
G1 X92.380 Y120.483 E7.02668
G1 X92.834 Y120.423 E7.03383
G1 X93.257 Y120.248 E7.04099
G1 X93.621 Y119.969 E7.04814
G1 X93.899 Y119.606 E7.05530
G1 X94.075 Y119.183 E7.06246
G1 X94.134 Y118.729 E7.06961
G1 X94.075 Y118.274 E7.07677
G1 X93.899 Y117.851 E7.08392
G1 X93.621 Y117.488 E7.09108
G1 X93.257 Y117.209 E7.09824
G1 X92.834 Y117.034 E7.10539
G1 X92.380 Y116.974 E7.11255
G1 X91.926 Y117.034 E7.11971
G1 X91.270 Y117.306 E7.13080
G1 X91.270 Y116.349 E7.14575
G1 X96.339 Y116.349 E7.22495
G1 X90.725 Y125.150 F7800.000
G1 X90.725 Y105.600 E7.42826 F1800.000
G1 X93.541 Y105.600 E7.45754
G1 X93.997 Y105.566 E7.46230
G1 X94.468 Y105.462 E7.46732
G1 X94.888 Y105.305 E7.47198
G1 X95.312 Y105.074 E7.47700
